lib/brands/icons/nfc.svg

<svg xmlns="http://www.w3.org/2000/svg" fill="none" aria-hidden="true" viewBox="0 0 48 48"><g id="nfc-Icon"><g id="Group"><path id="path10088" fill="url(#paint0_linear_94_16599)" d="M17.121 8.81293C14.0418 8.81293 9.25717 8.8224 8.35709 8.87925C7.01172 8.94557 6.11164 9.92144 6.05479 11.1721C5.99795 12.4132 5.96952 35.531 6.05479 36.7911C6.13059 38.0322 7.08751 38.9797 8.35709 39.0555C9.75932 39.1407 14.2881 39.1597 15.5956 39.1597C13.2554 37.549 12.9427 34.5267 12.7248 28.9083C12.5922 25.5828 12.7154 13.9197 12.7248 13.4175L12.7911 10.2436L25.0227 22.4751V26.3028L15.2829 16.5725C15.2545 18.4958 15.2356 21.0066 15.2356 23.2994C15.2356 25.5354 15.2735 27.5629 15.3398 28.6241C15.7093 34.7446 16.2778 37.6248 19.4707 38.7428C20.4465 39.0839 21.3561 39.1597 22.872 39.1786C24.1226 39.1976 32.8771 39.1881 34.1372 39.1123C35.4731 39.046 36.3731 38.0701 36.4395 36.81C36.4963 35.5689 36.5153 12.508 36.4395 11.2573C36.3447 10.0257 35.3973 9.08769 34.1372 9.01189C32.7349 8.92662 28.2061 8.8603 26.8987 8.8603C29.2199 10.471 29.542 13.4838 29.7599 19.0927C29.8926 22.4183 29.7694 34.0814 29.7599 34.574L29.6936 37.7669L17.4715 25.5449V21.7172L27.2018 31.438C27.2303 29.5147 27.2492 27.0039 27.2492 24.7111C27.2492 22.4751 27.2113 20.4571 27.145 19.3864C26.785 13.2659 26.207 10.4046 23.0141 9.27718C22.0382 8.9361 21.1287 8.84135 19.6128 8.8224H17.121V8.81293Z"/><g id="Union"><path fill="#0071AC" d="M38.1351 9.62774V11.6458H38.6278V9.62774H39.3478V9.22034H37.415V9.62774H38.1351Z"/><path fill="#0071AC" d="M39.6511 9.22034V11.6458H40.1059V9.73196L40.5891 11.6458H41.0628L41.546 9.73196V11.6553H42.0008V9.22034H41.2618L40.826 10.8784L40.3807 9.22034H39.6511Z"/></g></g></g><defs><linearGradient id="paint0_linear_94_16599" x1="44079.5" x2="44079.5" y1="39.1924" y2="8.77242" gradientUnits="userSpaceOnUse"><stop stop-color="#78C3ED"/><stop offset="0.004" stop-color="#77C3ED"/><stop offset="0.008" stop-color="#76C3ED"/><stop offset="0.012" stop-color="#75C2ED"/><stop offset="0.016" stop-color="#74C2EC"/><stop offset="0.02" stop-color="#72C1EC"/><stop offset="0.023" stop-color="#71C1EC"/><stop offset="0.027" stop-color="#70C1EC"/><stop offset="0.031" stop-color="#6FC0EB"/><stop offset="0.035" stop-color="#6EC0EB"/><stop offset="0.039" stop-color="#6DC0EB"/><stop offset="0.043" stop-color="#6CC0EB"/><stop offset="0.047" stop-color="#6BBFEB"/><stop offset="0.051" stop-color="#6ABFEB"/><stop offset="0.055" stop-color="#69BFEB"/><stop offset="0.059" stop-color="#68BEEB"/><stop offset="0.063" stop-color="#67BEEA"/><stop offset="0.066" stop-color="#66BDEA"/><stop offset="0.07" stop-color="#65BDEA"/><stop offset="0.074" stop-color="#64BDEA"/><stop offset="0.078" stop-color="#63BCEA"/><stop offset="0.082" stop-color="#62BCEA"/><stop offset="0.086" stop-color="#61BCEA"/><stop offset="0.09" stop-color="#60BBE9"/><stop offset="0.094" stop-color="#5FBAE9"/><stop offset="0.098" stop-color="#5EBAE9"/><stop offset="0.102" stop-color="#5DBAE9"/><stop offset="0.105" stop-color="#5CB9E9"/><stop offset="0.109" stop-color="#5BB9E9"/><stop offset="0.113" stop-color="#5AB9E9"/><stop offset="0.117" stop-color="#58B9E9"/><stop offset="0.121" stop-color="#57B8E8"/><stop offset="0.125" stop-color="#56B8E8"/><stop offset="0.129" stop-color="#55B8E8"/><stop offset="0.133" stop-color="#54B8E8"/><stop offset="0.137" stop-color="#53B7E8"/><stop offset="0.141" stop-color="#52B7E8"/><stop offset="0.144" stop-color="#50B7E8"/><stop offset="0.148" stop-color="#4FB6E8"/><stop offset="0.152" stop-color="#4EB6E7"/><stop offset="0.156" stop-color="#4DB5E7"/><stop offset="0.16" stop-color="#4BB5E7"/><stop offset="0.164" stop-color="#4AB5E7"/><stop offset="0.168" stop-color="#49B4E7"/><stop offset="0.172" stop-color="#48B4E7"/><stop offset="0.176" stop-color="#46B4E7"/><stop offset="0.18" stop-color="#45B4E7"/><stop offset="0.184" stop-color="#43B3E6"/><stop offset="0.188" stop-color="#41B3E6"/><stop offset="0.191" stop-color="#40B3E6"/><stop offset="0.195" stop-color="#3EB2E6"/><stop offset="0.199" stop-color="#3DB2E6"/><stop offset="0.203" stop-color="#3BB1E6"/><stop offset="0.207" stop-color="#3AB1E6"/><stop offset="0.211" stop-color="#38B1E6"/><stop offset="0.215" stop-color="#36B0E5"/><stop offset="0.219" stop-color="#34B0E5"/><stop offset="0.223" stop-color="#32B0E5"/><stop offset="0.227" stop-color="#30B0E5"/><stop offset="0.231" stop-color="#2EAFE5"/><stop offset="0.234" stop-color="#2CAFE5"/><stop offset="0.238" stop-color="#2AAFE5"/><stop offset="0.242" stop-color="#27AEE4"/><stop offset="0.246" stop-color="#25AEE4"/><stop offset="0.25" stop-color="#23AEE4"/><stop offset="0.254" stop-color="#20ADE4"/><stop offset="0.258" stop-color="#1CADE4"/><stop offset="0.262" stop-color="#19ACE4"/><stop offset="0.266" stop-color="#16ACE4"/><stop offset="0.27" stop-color="#0FACE4"/><stop offset="0.273" stop-color="#0AABE3"/><stop offset="0.277" stop-color="#06ABE3"/><stop offset="0.281" stop-color="#01ABE3"/><stop offset="0.297" stop-color="#00AAE3"/><stop offset="0.313" stop-color="#00A9E2"/><stop offset="0.328" stop-color="#00A8E2"/><stop offset="0.344" stop-color="#00A7E1"/><stop offset="0.359" stop-color="#00A6E1"/><stop offset="0.375" stop-color="#00A5E0"/><stop offset="0.379" stop-color="#00A4E0"/><stop offset="0.383" stop-color="#00A3E0"/><stop offset="0.398" stop-color="#00A2E0"/><stop offset="0.414" stop-color="#00A1DF"/><stop offset="0.43" stop-color="#00A0DF"/><stop offset="0.445" stop-color="#009FDE"/><stop offset="0.461" stop-color="#009EDE"/><stop offset="0.477" stop-color="#009DDD"/><stop offset="0.492" stop-color="#009CDD"/><stop offset="0.508" stop-color="#009BDD"/><stop offset="0.523" stop-color="#009ADC"/><stop offset="0.547" stop-color="#0099DC"/><stop offset="0.563" stop-color="#0099DB"/><stop offset="0.57" stop-color="#0098DB"/><stop offset="0.586" stop-color="#0097DA"/><stop offset="0.602" stop-color="#0096DA"/><stop offset="0.617" stop-color="#0095DA"/><stop offset="0.621" stop-color="#0094D9"/><stop offset="0.625" stop-color="#0094D8"/><stop offset="0.629" stop-color="#0093D8"/><stop offset="0.637" stop-color="#0092D7"/><stop offset="0.648" stop-color="#0091D6"/><stop offset="0.652" stop-color="#0090D5"/><stop offset="0.66" stop-color="#008FD4"/><stop offset="0.672" stop-color="#008ED4"/><stop offset="0.68" stop-color="#008ED3"/><stop offset="0.684" stop-color="#008CD2"/><stop offset="0.695" stop-color="#008BD1"/><stop offset="0.707" stop-color="#0089D0"/><stop offset="0.711" stop-color="#0089CF"/><stop offset="0.719" stop-color="#0088CF"/><stop offset="0.723" stop-color="#0088CE"/><stop offset="0.727" stop-color="#0087CD"/><stop offset="0.731" stop-color="#0086CD"/><stop offset="0.738" stop-color="#0085CC"/><stop offset="0.75" stop-color="#0085CB"/><stop offset="0.754" stop-color="#0084CA"/><stop offset="0.758" stop-color="#0083CA"/><stop offset="0.762" stop-color="#0082C9"/><stop offset="0.773" stop-color="#0081C9"/><stop offset="0.777" stop-color="#0080C8"/><stop offset="0.785" stop-color="#007FC7"/><stop offset="0.797" stop-color="#007EC6"/><stop offset="0.801" stop-color="#007DC5"/><stop offset="0.809" stop-color="#007CC4"/><stop offset="0.82" stop-color="#007BC4"/><stop offset="0.828" stop-color="#007BC3"/><stop offset="0.832" stop-color="#0079C2"/><stop offset="0.844" stop-color="#0078C1"/><stop offset="0.856" stop-color="#0077C0"/><stop offset="0.859" stop-color="#0076BF"/><stop offset="0.871" stop-color="#0075BE"/><stop offset="0.875" stop-color="#0074BE"/><stop offset="0.879" stop-color="#0074BD"/><stop offset="0.883" stop-color="#0073BD"/><stop offset="0.891" stop-color="#0073BC"/><stop offset="0.894" stop-color="#0072BC"/><stop offset="0.898" stop-color="#0071BB"/><stop offset="0.906" stop-color="#0070BB"/><stop offset="0.914" stop-color="#0070BA"/><stop offset="0.918" stop-color="#006FBA"/><stop offset="0.922" stop-color="#006EB9"/><stop offset="0.934" stop-color="#006DB8"/><stop offset="0.941" stop-color="#006CB7"/><stop offset="0.945" stop-color="#006BB7"/><stop offset="0.957" stop-color="#006AB6"/><stop offset="0.965" stop-color="#0069B5"/><stop offset="0.969" stop-color="#0068B5"/><stop offset="0.981" stop-color="#0067B4"/><stop offset="0.984" stop-color="#0067B3"/><stop offset="1" stop-color="#0066B3"/></linearGradient></defs></svg>

<svg xmlns="http://www.w3.org/2000/svg" fill="none" aria-hidden="true" viewBox="0 0 48 48"><path fill="url(#a)" d="M17.121 8.813c-3.08 0-7.864.01-8.764.066-1.345.067-2.245 1.042-2.302 2.293-.057 1.241-.085 24.359 0 25.62.076 1.24 1.033 2.188 2.302 2.264 1.402.085 5.931.104 7.239.104-2.34-1.611-2.653-4.633-2.871-10.252-.133-3.325-.01-14.988 0-15.49l.066-3.174 12.232 12.231v3.828l-9.74-9.73a485.818 485.818 0 0 0-.047 6.726c0 2.236.037 4.264.104 5.325.37 6.12.938 9 4.13 10.119.977.34 1.886.417 3.402.436 1.25.019 10.005.01 11.265-.067 1.336-.066 2.236-1.042 2.303-2.302.056-1.241.075-24.302 0-25.553-.095-1.231-1.043-2.17-2.303-2.245-1.402-.085-5.93-.152-7.238-.152 2.32 1.611 2.643 4.624 2.86 10.233.134 3.325.01 14.988 0 15.481l-.065 3.193L17.47 25.545v-3.828l9.73 9.721c.03-1.923.048-4.434.048-6.727 0-2.236-.038-4.254-.104-5.325-.36-6.12-.938-8.981-4.13-10.109-.977-.34-1.886-.436-3.402-.455H17.12v-.01Z"/><path fill="#0071AC" d="M38.135 9.628v2.018h.493V9.628h.72V9.22h-1.933v.408h.72Zm1.516-.408v2.426h.455V9.732l.483 1.914h.474l.483-1.914v1.923h.455V9.22h-.74l-.435 1.658-.445-1.658h-.73Z"/><defs><linearGradient id="a" x1="44079.5" x2="44079.5" y1="39.192" y2="8.772" gradientUnits="userSpaceOnUse"><stop stop-color="#78C3ED"/><stop offset=".004" stop-color="#77C3ED"/><stop offset=".008" stop-color="#76C3ED"/><stop offset=".012" stop-color="#75C2ED"/><stop offset=".016" stop-color="#74C2EC"/><stop offset=".02" stop-color="#72C1EC"/><stop offset=".023" stop-color="#71C1EC"/><stop offset=".027" stop-color="#70C1EC"/><stop offset=".031" stop-color="#6FC0EB"/><stop offset=".035" stop-color="#6EC0EB"/><stop offset=".039" stop-color="#6DC0EB"/><stop offset=".043" stop-color="#6CC0EB"/><stop offset=".047" stop-color="#6BBFEB"/><stop offset=".051" stop-color="#6ABFEB"/><stop offset=".055" stop-color="#69BFEB"/><stop offset=".059" stop-color="#68BEEB"/><stop offset=".063" stop-color="#67BEEA"/><stop offset=".066" stop-color="#66BDEA"/><stop offset=".07" stop-color="#65BDEA"/><stop offset=".074" stop-color="#64BDEA"/><stop offset=".078" stop-color="#63BCEA"/><stop offset=".082" stop-color="#62BCEA"/><stop offset=".086" stop-color="#61BCEA"/><stop offset=".09" stop-color="#60BBE9"/><stop offset=".094" stop-color="#5FBAE9"/><stop offset=".098" stop-color="#5EBAE9"/><stop offset=".102" stop-color="#5DBAE9"/><stop offset=".105" stop-color="#5CB9E9"/><stop offset=".109" stop-color="#5BB9E9"/><stop offset=".113" stop-color="#5AB9E9"/><stop offset=".117" stop-color="#58B9E9"/><stop offset=".121" stop-color="#57B8E8"/><stop offset=".125" stop-color="#56B8E8"/><stop offset=".129" stop-color="#55B8E8"/><stop offset=".133" stop-color="#54B8E8"/><stop offset=".137" stop-color="#53B7E8"/><stop offset=".141" stop-color="#52B7E8"/><stop offset=".144" stop-color="#50B7E8"/><stop offset=".148" stop-color="#4FB6E8"/><stop offset=".152" stop-color="#4EB6E7"/><stop offset=".156" stop-color="#4DB5E7"/><stop offset=".16" stop-color="#4BB5E7"/><stop offset=".164" stop-color="#4AB5E7"/><stop offset=".168" stop-color="#49B4E7"/><stop offset=".172" stop-color="#48B4E7"/><stop offset=".176" stop-color="#46B4E7"/><stop offset=".18" stop-color="#45B4E7"/><stop offset=".184" stop-color="#43B3E6"/><stop offset=".188" stop-color="#41B3E6"/><stop offset=".191" stop-color="#40B3E6"/><stop offset=".195" stop-color="#3EB2E6"/><stop offset=".199" stop-color="#3DB2E6"/><stop offset=".203" stop-color="#3BB1E6"/><stop offset=".207" stop-color="#3AB1E6"/><stop offset=".211" stop-color="#38B1E6"/><stop offset=".215" stop-color="#36B0E5"/><stop offset=".219" stop-color="#34B0E5"/><stop offset=".223" stop-color="#32B0E5"/><stop offset=".227" stop-color="#30B0E5"/><stop offset=".231" stop-color="#2EAFE5"/><stop offset=".234" stop-color="#2CAFE5"/><stop offset=".238" stop-color="#2AAFE5"/><stop offset=".242" stop-color="#27AEE4"/><stop offset=".246" stop-color="#25AEE4"/><stop offset=".25" stop-color="#23AEE4"/><stop offset=".254" stop-color="#20ADE4"/><stop offset=".258" stop-color="#1CADE4"/><stop offset=".262" stop-color="#19ACE4"/><stop offset=".266" stop-color="#16ACE4"/><stop offset=".27" stop-color="#0FACE4"/><stop offset=".273" stop-color="#0AABE3"/><stop offset=".277" stop-color="#06ABE3"/><stop offset=".281" stop-color="#01ABE3"/><stop offset=".297" stop-color="#00AAE3"/><stop offset=".313" stop-color="#00A9E2"/><stop offset=".328" stop-color="#00A8E2"/><stop offset=".344" stop-color="#00A7E1"/><stop offset=".359" stop-color="#00A6E1"/><stop offset=".375" stop-color="#00A5E0"/><stop offset=".379" stop-color="#00A4E0"/><stop offset=".383" stop-color="#00A3E0"/><stop offset=".398" stop-color="#00A2E0"/><stop offset=".414" stop-color="#00A1DF"/><stop offset=".43" stop-color="#00A0DF"/><stop offset=".445" stop-color="#009FDE"/><stop offset=".461" stop-color="#009EDE"/><stop offset=".477" stop-color="#009DDD"/><stop offset=".492" stop-color="#009CDD"/><stop offset=".508" stop-color="#009BDD"/><stop offset=".523" stop-color="#009ADC"/><stop offset=".547" stop-color="#0099DC"/><stop offset=".563" stop-color="#0099DB"/><stop offset=".57" stop-color="#0098DB"/><stop offset=".586" stop-color="#0097DA"/><stop offset=".602" stop-color="#0096DA"/><stop offset=".617" stop-color="#0095DA"/><stop offset=".621" stop-color="#0094D9"/><stop offset=".625" stop-color="#0094D8"/><stop offset=".629" stop-color="#0093D8"/><stop offset=".637" stop-color="#0092D7"/><stop offset=".648" stop-color="#0091D6"/><stop offset=".652" stop-color="#0090D5"/><stop offset=".66" stop-color="#008FD4"/><stop offset=".672" stop-color="#008ED4"/><stop offset=".68" stop-color="#008ED3"/><stop offset=".684" stop-color="#008CD2"/><stop offset=".695" stop-color="#008BD1"/><stop offset=".707" stop-color="#0089D0"/><stop offset=".711" stop-color="#0089CF"/><stop offset=".719" stop-color="#0088CF"/><stop offset=".723" stop-color="#0088CE"/><stop offset=".727" stop-color="#0087CD"/><stop offset=".731" stop-color="#0086CD"/><stop offset=".738" stop-color="#0085CC"/><stop offset=".75" stop-color="#0085CB"/><stop offset=".754" stop-color="#0084CA"/><stop offset=".758" stop-color="#0083CA"/><stop offset=".762" stop-color="#0082C9"/><stop offset=".773" stop-color="#0081C9"/><stop offset=".777" stop-color="#0080C8"/><stop offset=".785" stop-color="#007FC7"/><stop offset=".797" stop-color="#007EC6"/><stop offset=".801" stop-color="#007DC5"/><stop offset=".809" stop-color="#007CC4"/><stop offset=".82" stop-color="#007BC4"/><stop offset=".828" stop-color="#007BC3"/><stop offset=".832" stop-color="#0079C2"/><stop offset=".844" stop-color="#0078C1"/><stop offset=".856" stop-color="#0077C0"/><stop offset=".859" stop-color="#0076BF"/><stop offset=".871" stop-color="#0075BE"/><stop offset=".875" stop-color="#0074BE"/><stop offset=".879" stop-color="#0074BD"/><stop offset=".883" stop-color="#0073BD"/><stop offset=".891" stop-color="#0073BC"/><stop offset=".894" stop-color="#0072BC"/><stop offset=".898" stop-color="#0071BB"/><stop offset=".906" stop-color="#0070BB"/><stop offset=".914" stop-color="#0070BA"/><stop offset=".918" stop-color="#006FBA"/><stop offset=".922" stop-color="#006EB9"/><stop offset=".934" stop-color="#006DB8"/><stop offset=".941" stop-color="#006CB7"/><stop offset=".945" stop-color="#006BB7"/><stop offset=".957" stop-color="#006AB6"/><stop offset=".965" stop-color="#0069B5"/><stop offset=".969" stop-color="#0068B5"/><stop offset=".981" stop-color="#0067B4"/><stop offset=".984" stop-color="#0067B3"/><stop offset="1" stop-color="#0066B3"/></linearGradient></defs></svg>
